X: 35650
T: Sailor On The Rock, The
R: reel
M: 4/4
K: Dmajor
|:d3A BAFB|ADFD DAAB|dcdA BAFB|ABdf edBd|
AddA BAFB|ADFD FAAB|d2dA BAFB|ABdf efd2:|
|:faad fdef|gfga beeg|faae fedB|AB df efde|
faad fdef|gfga beeg|faae fedB|ABdf efd2:|

